UI/Core-UI/SVG/battery-full_outline_24px.svg

<svg xmlns="http://www.w3.org/2000/svg" width="24" height="24" viewBox="0 0 24 24"><rect width="24" height="24" style="fill:none"/><path d="M14,10v4H8V10h6m2-2H6v8H16V8Zm2-2v4h2v4H18v4H4V6H18m2-2H2V20H20V16h2V8H20V4Z"/></svg>

<svg width="24" height="24" viewBox="0 0 24 24" fill="none" xmlns="http://www.w3.org/2000/svg">
<path d="M14 10V14H8V10H14ZM16 8H6V16H16V8ZM18 6V10H20V14H18V18H4V6H18ZM20 4H2V20H20V16H22V8H20V4Z" fill="#0F1621"/>
</svg>
